X: 1254
T: Bridget McBride
M:C|
L:1/8
R:Reel
B:O'Neill's 1254
N:Collected by Cronin
Z:Transcribed by Trish O'Neil
K:G
d|gedc BGBd|cBcA ABcA|B>G (3GGG GBdB|cBAG FGBd|
gedc BGBd|cBcB ABcA|BcdB Bdeg|fdcAG2||
de|fefg fedB|cBAG FGAd|g2ga gfdg|fgafg2de|
f2fg fedB|cBAG FGAc|BcdB cdeg|fdefg3||


